dist/assets/images/logo-en.svg

<svg width="96" height="67" viewBox="0 0 96 67" fill="none" xmlns="http://www.w3.org/2000/svg">
<path fill-rule="evenodd" clip-rule="evenodd" d="M8.36036 2.12451H13.3436H59.1815C77.0141 2.12451 91.7992 15.4428 94.0232 32.5605H75.1609C73.2664 26.2282 67.2947 21.5709 60.2934 21.5709H8.89575H4.20077L0 2.12451H8.36036Z" fill="#0000BD"/>
<path fill-rule="evenodd" clip-rule="evenodd" d="M91.305 0C90.0695 0 88.9163 0.490244 88.0103 1.34817C87.1042 2.2878 86.5688 3.39085 86.5688 4.73902C86.5688 5.96463 87.0631 7.06768 88.0103 7.96646C88.9163 8.9061 90.0695 9.31463 91.305 9.31463C92.6229 9.31463 93.7349 8.9061 94.6409 7.96646C95.547 7.06768 96 6.00549 96 4.73902C96 3.39085 95.547 2.32866 94.6409 1.34817C93.7349 0.490244 92.5817 0 91.305 0ZM88.5457 1.96098C89.287 1.26646 90.2342 0.817073 91.2638 0.817073C92.2934 0.817073 93.2407 1.26646 93.982 1.96098C94.7233 2.73719 95.1351 3.59512 95.1351 4.73902C95.1351 5.76037 94.7233 6.7 93.982 7.39451C93.2407 8.12988 92.2934 8.53841 91.2638 8.53841C90.2342 8.53841 89.287 8.12988 88.5457 7.39451C87.8044 6.7 87.3925 5.76037 87.4749 4.73902C87.4337 3.59512 87.8456 2.77805 88.5457 1.96098Z" fill="#0000BD"/>
<path fill-rule="evenodd" clip-rule="evenodd" d="M89.4929 6.82251V2.45117H91.3874C91.8404 2.45117 92.2111 2.49203 92.417 2.57373C92.6229 2.65544 92.7876 2.778 92.9112 2.98227C93.0347 3.18654 93.1171 3.43166 93.1171 3.67678C93.1171 4.00361 93.0347 4.28959 92.8288 4.49385C92.6229 4.69812 92.3346 4.86154 91.964 4.90239C92.1699 5.02495 92.3346 5.14751 92.4582 5.27007C92.5817 5.39264 92.7465 5.63776 92.9524 5.96459L93.4878 6.82251H92.417L91.758 5.88288C91.5109 5.55605 91.3874 5.31093 91.305 5.22922C91.2226 5.14751 91.1403 5.06581 91.0167 5.06581C90.9344 5.02495 90.7696 5.02495 90.5637 5.02495H90.399V6.86337H89.4929V6.82251ZM90.399 4.33044H91.0579C91.4698 4.33044 91.758 4.33044 91.8404 4.28959C91.964 4.24873 92.0463 4.20788 92.0875 4.08532C92.1287 4.00361 92.1699 3.88105 92.1699 3.75849C92.1699 3.59507 92.1287 3.47251 92.0463 3.39081C91.964 3.3091 91.8404 3.22739 91.7169 3.22739C91.6345 3.22739 91.4286 3.22739 91.0579 3.22739H90.3578V4.33044H90.399Z" fill="#0000BD"/>
<path fill-rule="evenodd" clip-rule="evenodd" d="M5.43628 40.4042V28.8426H17.3385V31.0079H8.23679V33.5408H17.0502V35.5426H8.23679V38.1981H17.3385V40.3633H5.43628V40.4042ZM23.269 31.1304V34.6847H29.0759C29.6525 34.6847 30.0643 34.5621 30.3114 34.2762C30.5585 33.9902 30.6821 33.5408 30.6821 32.8871C30.6821 32.2335 30.5585 31.8249 30.3526 31.539C30.1055 31.253 29.6937 31.0896 29.0759 31.0896H23.269V31.1304ZM33.6885 40.4042H30.888V38.6066C30.888 38.0347 30.7233 37.6262 30.3526 37.381C30.0232 37.1359 29.4466 36.9725 28.6641 36.9725H23.269V40.4042H20.4685V28.8426H29.323C30.6409 28.8426 31.6293 29.1286 32.2883 29.6597C33.0708 30.3133 33.4414 31.3755 33.4414 32.928C33.4414 33.7451 33.2767 34.3987 32.906 34.9298C32.6589 35.2975 32.2471 35.6652 31.7117 35.9512C32.3295 36.1554 32.8237 36.4005 33.0708 36.6865C33.4002 37.0133 33.6062 37.4627 33.6062 38.0347V40.4042H33.6885ZM43.202 33.6225H50.574V36.6865C50.574 38.0347 50.2445 39.0152 49.6268 39.5463C48.9678 40.0774 47.897 40.3633 46.3732 40.3633H40.731C39.2896 40.3633 38.2188 40.0365 37.4775 39.4237C36.7773 38.8109 36.4067 37.7896 36.4067 36.4005V32.8463C36.4067 31.3347 36.7362 30.2316 37.3951 29.6188C38.054 29.006 39.166 28.6792 40.6898 28.6792H46.2909C47.7735 28.6792 48.8443 28.9243 49.462 29.3737C50.2033 29.9048 50.5328 30.8444 50.5328 32.2335H47.7323C47.7323 31.7841 47.5676 31.4572 47.2381 31.2938C46.9086 31.0896 46.332 31.0079 45.5084 31.0079H41.39C40.5251 31.0079 39.9485 31.1713 39.619 31.4981C39.2896 31.8249 39.1248 32.3969 39.1248 33.2548V36.1963C39.1248 36.9725 39.2484 37.5036 39.5367 37.7487C39.825 37.9938 40.4015 38.1164 41.3488 38.1164H45.9202C46.5791 38.1164 47.0733 38.0347 47.3205 37.8304C47.5676 37.6262 47.6911 37.3402 47.6911 36.8908V35.6652H43.0785V33.6225H43.202ZM55.9279 40.4042H52.6744L58.852 28.8426H62.9704L69.1068 40.4042H65.8533L64.3706 37.5036H57.4929L55.9279 40.4042ZM58.5637 35.2975H63.2175L60.9936 31.0079H60.87L58.5637 35.2975Z" fill="#2B2A29"/>
<path fill-rule="evenodd" clip-rule="evenodd" d="M8.36036 66.9999H13.3436H59.1815C77.0141 66.9999 91.7992 53.6816 94.0232 36.564H75.1609C73.2664 42.8963 67.2947 47.5536 60.2934 47.5536H8.89575H4.20077L0 66.9999H8.36036Z" fill="#E31E24"/>
</svg>

<svg width="96" height="67" fill="none" xmlns="http://www.w3.org/2000/svg"><path fill-rule="evenodd" clip-rule="evenodd" d="M8.36 2.125h50.821c17.833 0 32.618 13.318 34.842 30.435H75.161c-1.895-6.332-7.866-10.99-14.868-10.99H4.201L0 2.126h8.36zM91.305 0c-1.236 0-2.389.49-3.295 1.348-.906.94-1.441 2.043-1.441 3.391 0 1.226.494 2.329 1.441 3.227.906.94 2.06 1.349 3.295 1.349 1.318 0 2.43-.409 3.336-1.349C95.547 7.068 96 6.006 96 4.74c0-1.348-.453-2.41-1.36-3.39C93.736.49 92.583 0 91.306 0zm-2.76 1.961c.742-.695 1.69-1.144 2.719-1.144 1.03 0 1.977.45 2.718 1.144.741.776 1.153 1.634 1.153 2.778a3.6 3.6 0 01-1.153 2.656c-.741.735-1.689 1.143-2.718 1.143-1.03 0-1.977-.408-2.718-1.143-.742-.695-1.154-1.635-1.071-2.656-.041-1.144.37-1.961 1.07-2.778z" fill="#0000BD"/><path fill-rule="evenodd" clip-rule="evenodd" d="M89.493 6.823V2.45h1.894c.453 0 .824.041 1.03.123a.96.96 0 01.494.408c.124.205.206.45.206.695 0 .327-.082.613-.288.817a1.434 1.434 0 01-.865.408c.206.123.37.246.494.368.124.123.288.368.494.695l.536.858h-1.071l-.659-.94c-.247-.327-.37-.572-.453-.654-.082-.081-.165-.163-.288-.163-.083-.041-.247-.041-.453-.041h-.165v1.838h-.906v-.04zm.906-2.493h.659c.412 0 .7 0 .782-.04.124-.041.206-.082.248-.205a.765.765 0 00.082-.327c0-.163-.041-.285-.124-.367-.082-.082-.206-.164-.33-.164h-1.358V4.33h.041z" fill="#0000BD"/><path fill-rule="evenodd" clip-rule="evenodd" d="M5.436 40.404V28.843h11.902v2.165H8.237v2.533h8.813v2.002H8.237v2.655h9.101v2.165H5.437v.041zM23.27 31.13v3.555h5.807c.576 0 .988-.123 1.235-.409.247-.286.371-.735.371-1.389s-.123-1.062-.33-1.348c-.247-.286-.658-.45-1.276-.45H23.27v.041zm10.42 9.274h-2.801v-1.797c0-.572-.165-.98-.535-1.226-.33-.245-.906-.409-1.689-.409H23.27v3.432h-2.8V28.843h8.854c1.318 0 2.306.286 2.965.817.783.653 1.153 1.715 1.153 3.268 0 .817-.164 1.47-.535 2.002-.247.367-.659.735-1.194 1.021.618.204 1.112.45 1.359.736.33.326.535.776.535 1.348v2.37h.082zm9.513-6.782h7.372v3.065c0 1.348-.33 2.328-.947 2.86-.66.53-1.73.816-3.254.816h-5.642c-1.441 0-2.512-.327-3.254-.94-.7-.612-1.07-1.633-1.07-3.023v-3.554c0-1.511.33-2.614.988-3.227.659-.613 1.771-.94 3.295-.94h5.6c1.483 0 2.554.245 3.172.695.741.53 1.07 1.47 1.07 2.86h-2.8c0-.45-.164-.777-.494-.94-.33-.204-.906-.286-1.73-.286H41.39c-.865 0-1.441.163-1.771.49-.33.327-.494.899-.494 1.757v2.941c0 .776.123 1.308.412 1.553.288.245.864.367 1.812.367h4.571c.66 0 1.153-.081 1.4-.286.248-.204.371-.49.371-.94v-1.225h-4.613v-2.042h.124zm12.726 6.782h-3.254l6.178-11.561h4.118l6.137 11.561h-3.254l-1.482-2.9h-6.878l-1.565 2.9zm2.636-5.107h4.654l-2.224-4.29h-.124l-2.306 4.29z" fill="#2B2A29"/><path fill-rule="evenodd" clip-rule="evenodd" d="M8.36 67h50.821C77.014 67 91.8 53.682 94.023 36.564H75.161c-1.895 6.332-7.866 10.99-14.868 10.99H4.201L0 67h8.36z" fill="#E31E24"/></svg>
